X: 3
T: Off She Goes
R: jig
M: 6/8
L: 1/8
K: Dmaj
{c}d2B AFA | B2d A3 | B2G g2f | efd cBA | \{c}d2B AFA | Bcd ABc | BGB cde | fge d3 ::f2d a2f | e2c a2c | dcd fed | cde ABc | \BGB Bcd | cAB cde | fga bgf | efd cBA !D.C.! |]


Tune 1133	Setting 24475

